images/50955687.svg

<?xml version="1.0" encoding="UTF-8"?>
<svg xmlns="http://www.w3.org/2000/svg" xmlns:xlink="http://www.w3.org/1999/xlink" width="300pt" height="300pt" viewBox="0 0 300 300" version="1.1">
<defs>
<g>
<symbol overflow="visible" id="glyph0-0">
<path style="stroke:none;" d="M 0.453125 1.59375 L 0.453125 -6.34375 L 4.953125 -6.34375 L 4.953125 1.59375 Z M 0.953125 1.09375 L 4.453125 1.09375 L 4.453125 -5.84375 L 0.953125 -5.84375 Z M 0.953125 1.09375 "/>
</symbol>
<symbol overflow="visible" id="glyph0-1">
<path style="stroke:none;" d="M 0.890625 -6.5625 L 4.65625 -6.5625 L 4.65625 -5.8125 L 1.765625 -5.8125 L 1.765625 -3.875 L 4.375 -3.875 L 4.375 -3.140625 L 1.765625 -3.140625 L 1.765625 0 L 0.890625 0 Z M 0.890625 -6.5625 "/>
</symbol>
<symbol overflow="visible" id="glyph0-2">
<path style="stroke:none;" d="M 0.890625 -6.5625 L 2.078125 -6.5625 L 4.984375 -1.078125 L 4.984375 -6.5625 L 5.84375 -6.5625 L 5.84375 0 L 4.65625 0 L 1.75 -5.484375 L 1.75 0 L 0.890625 0 Z M 0.890625 -6.5625 "/>
</symbol>
<symbol overflow="visible" id="glyph0-3">
<path style="stroke:none;" d="M 0.890625 -6.5625 L 1.765625 -6.5625 L 1.765625 -3.875 L 5 -3.875 L 5 -6.5625 L 5.890625 -6.5625 L 5.890625 0 L 5 0 L 5 -3.125 L 1.765625 -3.125 L 1.765625 0 L 0.890625 0 Z M 0.890625 -6.5625 "/>
</symbol>
<symbol overflow="visible" id="glyph0-4">
<path style="stroke:none;" d="M 3.546875 -5.953125 C 2.898438 -5.953125 2.382812 -5.710938 2 -5.234375 C 1.625 -4.753906 1.4375 -4.101562 1.4375 -3.28125 C 1.4375 -2.445312 1.625 -1.789062 2 -1.3125 C 2.382812 -0.832031 2.898438 -0.59375 3.546875 -0.59375 C 4.191406 -0.59375 4.703125 -0.832031 5.078125 -1.3125 C 5.453125 -1.789062 5.640625 -2.445312 5.640625 -3.28125 C 5.640625 -4.101562 5.453125 -4.753906 5.078125 -5.234375 C 4.703125 -5.710938 4.191406 -5.953125 3.546875 -5.953125 Z M 3.546875 -6.6875 C 4.460938 -6.6875 5.195312 -6.375 5.75 -5.75 C 6.300781 -5.132812 6.578125 -4.3125 6.578125 -3.28125 C 6.578125 -2.238281 6.300781 -1.410156 5.75 -0.796875 C 5.195312 -0.179688 4.460938 0.125 3.546875 0.125 C 2.617188 0.125 1.878906 -0.179688 1.328125 -0.796875 C 0.773438 -1.410156 0.5 -2.238281 0.5 -3.28125 C 0.5 -4.3125 0.773438 -5.132812 1.328125 -5.75 C 1.878906 -6.375 2.617188 -6.6875 3.546875 -6.6875 Z M 3.546875 -6.6875 "/>
</symbol>
</g>
</defs>
<g id="surface17241">
<rect x="0" y="0" width="300" height="300" style="fill:rgb(100%,100%,100%);fill-opacity:1;stroke:none;"/>
<path style="fill:none;stroke-width:1.2;stroke-linecap:butt;stroke-linejoin:miter;stroke:rgb(20%,80%,80%);stroke-opacity:1;stroke-miterlimit:10;" d="M 74.402344 193.683594 L 72.585938 185.527344 "/>
<path style="fill:none;stroke-width:1.2;stroke-linecap:butt;stroke-linejoin:miter;stroke:rgb(0%,0%,0%);stroke-opacity:1;stroke-miterlimit:10;" d="M 72.585938 185.527344 L 70.769531 177.371094 "/>
<path style=" stroke:none;fill-rule:nonzero;fill:rgb(100%,100%,100%);fill-opacity:1;" d="M 71.402344 188.183594 L 77.402344 188.183594 L 77.402344 199.183594 L 71.402344 199.183594 Z M 71.402344 188.183594 "/>
<g style="fill:rgb(20%,80%,80%);fill-opacity:1;">
  <use xlink:href="#glyph0-1" x="71.402344" y="196.84668"/>
</g>
<path style="fill:none;stroke-width:1.2;stroke-linecap:butt;stroke-linejoin:miter;stroke:rgb(0%,0%,0%);stroke-opacity:1;stroke-miterlimit:10;" d="M 70.769531 177.371094 L 54.828125 172.363281 "/>
<path style="fill:none;stroke-width:1.2;stroke-linecap:butt;stroke-linejoin:miter;stroke:rgb(0%,0%,0%);stroke-opacity:1;stroke-miterlimit:10;" d="M 70.355469 173.121094 L 57.601562 169.113281 "/>
<path style="fill:none;stroke-width:1.2;stroke-linecap:butt;stroke-linejoin:miter;stroke:rgb(0%,0%,0%);stroke-opacity:1;stroke-miterlimit:10;" d="M 83.078125 166.070312 L 70.769531 177.371094 "/>
<path style="fill:none;stroke-width:1.2;stroke-linecap:butt;stroke-linejoin:miter;stroke:rgb(0%,0%,0%);stroke-opacity:1;stroke-miterlimit:10;" d="M 54.828125 172.363281 L 51.191406 156.050781 "/>
<path style="fill:none;stroke-width:1.2;stroke-linecap:butt;stroke-linejoin:miter;stroke:rgb(0%,0%,0%);stroke-opacity:1;stroke-miterlimit:10;" d="M 51.191406 156.050781 L 43.222656 153.546875 "/>
<path style="fill:none;stroke-width:1.2;stroke-linecap:butt;stroke-linejoin:miter;stroke:rgb(20%,80%,80%);stroke-opacity:1;stroke-miterlimit:10;" d="M 43.222656 153.546875 L 35.25 151.042969 "/>
<path style="fill:none;stroke-width:1.2;stroke-linecap:butt;stroke-linejoin:miter;stroke:rgb(0%,0%,0%);stroke-opacity:1;stroke-miterlimit:10;" d="M 51.191406 156.050781 L 63.503906 144.75 "/>
<path style="fill:none;stroke-width:1.2;stroke-linecap:butt;stroke-linejoin:miter;stroke:rgb(0%,0%,0%);stroke-opacity:1;stroke-miterlimit:10;" d="M 55.082031 157.816406 L 64.929688 148.777344 "/>
<path style=" stroke:none;fill-rule:nonzero;fill:rgb(100%,100%,100%);fill-opacity:1;" d="M 29.25 145.542969 L 35.25 145.542969 L 35.25 156.542969 L 29.25 156.542969 Z M 29.25 145.542969 "/>
<g style="fill:rgb(20%,80%,80%);fill-opacity:1;">
  <use xlink:href="#glyph0-1" x="29.25" y="154.206055"/>
</g>
<path style="fill:none;stroke-width:1.2;stroke-linecap:butt;stroke-linejoin:miter;stroke:rgb(0%,0%,0%);stroke-opacity:1;stroke-miterlimit:10;" d="M 63.503906 144.75 L 79.445312 149.757812 "/>
<path style="fill:none;stroke-width:1.2;stroke-linecap:butt;stroke-linejoin:miter;stroke:rgb(0%,0%,0%);stroke-opacity:1;stroke-miterlimit:10;" d="M 79.445312 149.757812 L 83.078125 166.070312 "/>
<path style="fill:none;stroke-width:1.2;stroke-linecap:butt;stroke-linejoin:miter;stroke:rgb(0%,0%,0%);stroke-opacity:1;stroke-miterlimit:10;" d="M 75.96875 152.246094 L 78.878906 165.292969 "/>
<path style="fill:none;stroke-width:1.2;stroke-linecap:butt;stroke-linejoin:miter;stroke:rgb(0%,0%,0%);stroke-opacity:1;stroke-miterlimit:10;" d="M 83.078125 166.070312 L 91.050781 168.574219 "/>
<path style="fill:none;stroke-width:1.2;stroke-linecap:butt;stroke-linejoin:miter;stroke:rgb(0%,0%,100%);stroke-opacity:1;stroke-miterlimit:10;" d="M 91.050781 168.574219 L 99.023438 171.078125 "/>
<path style="fill:none;stroke-width:1.2;stroke-linecap:butt;stroke-linejoin:miter;stroke:rgb(0%,0%,100%);stroke-opacity:1;stroke-miterlimit:10;" d="M 99.023438 171.078125 L 105.175781 165.425781 "/>
<path style="fill:none;stroke-width:1.2;stroke-linecap:butt;stroke-linejoin:miter;stroke:rgb(0%,0%,0%);stroke-opacity:1;stroke-miterlimit:10;" d="M 105.175781 165.425781 L 111.332031 159.773438 "/>
<path style=" stroke:none;fill-rule:nonzero;fill:rgb(100%,100%,100%);fill-opacity:1;" d="M 92.023438 165.578125 L 106.023438 165.578125 L 106.023438 176.578125 L 92.023438 176.578125 Z M 92.023438 165.578125 "/>
<g style="fill:rgb(0%,0%,100%);fill-opacity:1;">
  <use xlink:href="#glyph0-2" x="92.023438" y="174.241211"/>
  <use xlink:href="#glyph0-3" x="99.000977" y="174.241211"/>
</g>
<path style="fill:none;stroke-width:1.2;stroke-linecap:butt;stroke-linejoin:miter;stroke:rgb(0%,0%,0%);stroke-opacity:1;stroke-miterlimit:10;" d="M 111.332031 159.773438 L 127.273438 164.785156 "/>
<path style="fill:none;stroke-width:1.2;stroke-linecap:butt;stroke-linejoin:miter;stroke:rgb(0%,0%,0%);stroke-opacity:1;stroke-miterlimit:10;" d="M 114.105469 156.523438 L 126.859375 160.53125 "/>
<path style="fill:none;stroke-width:1.2;stroke-linecap:butt;stroke-linejoin:miter;stroke:rgb(0%,0%,0%);stroke-opacity:1;stroke-miterlimit:10;" d="M 107.699219 143.464844 L 111.332031 159.773438 "/>
<path style="fill:none;stroke-width:1.2;stroke-linecap:butt;stroke-linejoin:miter;stroke:rgb(0%,0%,0%);stroke-opacity:1;stroke-miterlimit:10;" d="M 127.273438 164.785156 L 139.582031 153.480469 "/>
<path style="fill:none;stroke-width:1.2;stroke-linecap:butt;stroke-linejoin:miter;stroke:rgb(0%,0%,0%);stroke-opacity:1;stroke-miterlimit:10;" d="M 139.582031 153.480469 L 135.949219 137.167969 "/>
<path style="fill:none;stroke-width:1.2;stroke-linecap:butt;stroke-linejoin:miter;stroke:rgb(0%,0%,0%);stroke-opacity:1;stroke-miterlimit:10;" d="M 143.058594 150.996094 L 140.152344 137.945312 "/>
<path style="fill:none;stroke-width:1.2;stroke-linecap:butt;stroke-linejoin:miter;stroke:rgb(0%,0%,0%);stroke-opacity:1;stroke-miterlimit:10;" d="M 154.601562 160.808594 L 139.582031 153.480469 "/>
<path style="fill:none;stroke-width:1.2;stroke-linecap:butt;stroke-linejoin:miter;stroke:rgb(0%,0%,0%);stroke-opacity:1;stroke-miterlimit:10;" d="M 135.949219 137.167969 L 120.007812 132.160156 "/>
<path style="fill:none;stroke-width:1.2;stroke-linecap:butt;stroke-linejoin:miter;stroke:rgb(0%,0%,0%);stroke-opacity:1;stroke-miterlimit:10;" d="M 135.949219 137.167969 L 146.4375 124.160156 "/>
<path style="fill:none;stroke-width:1.2;stroke-linecap:butt;stroke-linejoin:miter;stroke:rgb(0%,0%,0%);stroke-opacity:1;stroke-miterlimit:10;" d="M 120.007812 132.160156 L 107.699219 143.464844 "/>
<path style="fill:none;stroke-width:1.2;stroke-linecap:butt;stroke-linejoin:miter;stroke:rgb(0%,0%,0%);stroke-opacity:1;stroke-miterlimit:10;" d="M 121.433594 136.1875 L 111.585938 145.230469 "/>
<path style="fill:none;stroke-width:1.2;stroke-linecap:butt;stroke-linejoin:miter;stroke:rgb(0%,0%,0%);stroke-opacity:1;stroke-miterlimit:10;" d="M 148.210938 123.316406 L 144.625 115.769531 "/>
<path style="fill:none;stroke-width:1.2;stroke-linecap:butt;stroke-linejoin:miter;stroke:rgb(100%,0%,0%);stroke-opacity:1;stroke-miterlimit:10;" d="M 144.625 115.769531 L 141.039062 108.222656 "/>
<path style="fill:none;stroke-width:1.2;stroke-linecap:butt;stroke-linejoin:miter;stroke:rgb(0%,0%,0%);stroke-opacity:1;stroke-miterlimit:10;" d="M 144.660156 125.003906 L 141.074219 117.457031 "/>
<path style="fill:none;stroke-width:1.2;stroke-linecap:butt;stroke-linejoin:miter;stroke:rgb(100%,0%,0%);stroke-opacity:1;stroke-miterlimit:10;" d="M 141.074219 117.457031 L 137.488281 109.910156 "/>
<path style="fill:none;stroke-width:1.2;stroke-linecap:butt;stroke-linejoin:miter;stroke:rgb(0%,0%,0%);stroke-opacity:1;stroke-miterlimit:10;" d="M 146.4375 124.160156 L 163.148438 124.246094 "/>
<path style=" stroke:none;fill-rule:nonzero;fill:rgb(100%,100%,100%);fill-opacity:1;" d="M 131.265625 103.566406 L 139.265625 103.566406 L 139.265625 114.566406 L 131.265625 114.566406 Z M 131.265625 103.566406 "/>
<g style="fill:rgb(100%,0%,0%);fill-opacity:1;">
  <use xlink:href="#glyph0-4" x="131.265625" y="112.229492"/>
</g>
<path style="fill:none;stroke-width:1.2;stroke-linecap:butt;stroke-linejoin:miter;stroke:rgb(0%,0%,0%);stroke-opacity:1;stroke-miterlimit:10;" d="M 163.148438 124.246094 L 173.5 137.363281 "/>
<path style="fill:none;stroke-width:1.2;stroke-linecap:butt;stroke-linejoin:miter;stroke:rgb(0%,0%,0%);stroke-opacity:1;stroke-miterlimit:10;" d="M 167.269531 123.121094 L 175.550781 133.617188 "/>
<path style="fill:none;stroke-width:1.2;stroke-linecap:butt;stroke-linejoin:miter;stroke:rgb(0%,0%,0%);stroke-opacity:1;stroke-miterlimit:10;" d="M 169.332031 108.722656 L 163.148438 124.246094 "/>
<path style="fill:none;stroke-width:1.2;stroke-linecap:butt;stroke-linejoin:miter;stroke:rgb(0%,0%,0%);stroke-opacity:1;stroke-miterlimit:10;" d="M 173.5 137.363281 L 169.695312 153.636719 "/>
<path style="fill:none;stroke-width:1.2;stroke-linecap:butt;stroke-linejoin:miter;stroke:rgb(0%,0%,0%);stroke-opacity:1;stroke-miterlimit:10;" d="M 173.5 137.363281 L 190.035156 134.960938 "/>
<path style="fill:none;stroke-width:1.2;stroke-linecap:butt;stroke-linejoin:miter;stroke:rgb(0%,0%,0%);stroke-opacity:1;stroke-miterlimit:10;" d="M 169.695312 153.636719 L 154.601562 160.808594 "/>
<path style="fill:none;stroke-width:1.2;stroke-linecap:butt;stroke-linejoin:miter;stroke:rgb(0%,0%,0%);stroke-opacity:1;stroke-miterlimit:10;" d="M 190.035156 134.960938 L 195.210938 141.519531 "/>
<path style="fill:none;stroke-width:1.2;stroke-linecap:butt;stroke-linejoin:miter;stroke:rgb(100%,0%,0%);stroke-opacity:1;stroke-miterlimit:10;" d="M 195.210938 141.519531 L 200.386719 148.078125 "/>
<path style="fill:none;stroke-width:1.2;stroke-linecap:butt;stroke-linejoin:miter;stroke:rgb(0%,0%,0%);stroke-opacity:1;stroke-miterlimit:10;" d="M 190.035156 134.960938 L 196.222656 119.4375 "/>
<path style="fill:none;stroke-width:1.2;stroke-linecap:butt;stroke-linejoin:miter;stroke:rgb(0%,0%,0%);stroke-opacity:1;stroke-miterlimit:10;" d="M 187.003906 131.953125 L 191.949219 119.53125 "/>
<path style="fill:none;stroke-width:1.2;stroke-linecap:butt;stroke-linejoin:miter;stroke:rgb(100%,0%,0%);stroke-opacity:1;stroke-miterlimit:10;" d="M 200.386719 148.078125 L 208.65625 146.875 "/>
<path style="fill:none;stroke-width:1.2;stroke-linecap:butt;stroke-linejoin:miter;stroke:rgb(0%,0%,0%);stroke-opacity:1;stroke-miterlimit:10;" d="M 208.65625 146.875 L 216.925781 145.675781 "/>
<path style=" stroke:none;fill-rule:nonzero;fill:rgb(100%,100%,100%);fill-opacity:1;" d="M 196.386719 142.578125 L 204.386719 142.578125 L 204.386719 153.578125 L 196.386719 153.578125 Z M 196.386719 142.578125 "/>
<g style="fill:rgb(100%,0%,0%);fill-opacity:1;">
  <use xlink:href="#glyph0-4" x="196.386719" y="151.241211"/>
</g>
<path style="fill:none;stroke-width:1;stroke-linecap:butt;stroke-linejoin:miter;stroke:rgb(0%,0%,0%);stroke-opacity:1;stroke-miterlimit:10;" d="M 227.277344 158.792969 L 227.277344 158.792969 M 225.855469 156.152344 L 225.039062 156.796875 M 224.433594 153.507812 L 222.796875 154.800781 M 223.015625 150.867188 L 220.558594 152.804688 M 221.59375 148.222656 L 218.320312 150.808594 M 220.171875 145.582031 L 216.078125 148.8125 M 219.242188 143.847656 L 214.609375 147.5 "/>
<path style="fill:none;stroke-width:1.2;stroke-linecap:butt;stroke-linejoin:miter;stroke:rgb(0%,0%,0%);stroke-opacity:1;stroke-miterlimit:10;" d="M 227.277344 158.792969 L 235.625 158.460938 "/>
<path style="fill:none;stroke-width:1.2;stroke-linecap:butt;stroke-linejoin:miter;stroke:rgb(100%,0%,0%);stroke-opacity:1;stroke-miterlimit:10;" d="M 235.625 158.460938 L 243.972656 158.128906 "/>
<path style="fill:none;stroke-width:1.2;stroke-linecap:butt;stroke-linejoin:miter;stroke:rgb(0%,0%,0%);stroke-opacity:1;stroke-miterlimit:10;" d="M 222.746094 174.878906 L 227.277344 158.792969 "/>
<path style="fill:none;stroke-width:1.2;stroke-linecap:butt;stroke-linejoin:miter;stroke:rgb(100%,0%,0%);stroke-opacity:1;stroke-miterlimit:10;" d="M 243.972656 158.128906 L 246.871094 165.96875 "/>
<path style="fill:none;stroke-width:1.2;stroke-linecap:butt;stroke-linejoin:miter;stroke:rgb(0%,0%,0%);stroke-opacity:1;stroke-miterlimit:10;" d="M 246.871094 165.96875 L 249.765625 173.808594 "/>
<path style=" stroke:none;fill-rule:nonzero;fill:rgb(100%,100%,100%);fill-opacity:1;" d="M 239.972656 152.628906 L 247.972656 152.628906 L 247.972656 163.628906 L 239.972656 163.628906 Z M 239.972656 152.628906 "/>
<g style="fill:rgb(100%,0%,0%);fill-opacity:1;">
  <use xlink:href="#glyph0-4" x="239.972656" y="161.291992"/>
</g>
<path style="fill:none;stroke-width:1.2;stroke-linecap:butt;stroke-linejoin:miter;stroke:rgb(0%,0%,0%);stroke-opacity:1;stroke-miterlimit:10;" d="M 249.765625 173.808594 L 243.207031 178.980469 "/>
<path style="fill:none;stroke-width:1.2;stroke-linecap:butt;stroke-linejoin:miter;stroke:rgb(100%,0%,0%);stroke-opacity:1;stroke-miterlimit:10;" d="M 243.207031 178.980469 L 236.644531 184.15625 "/>
<path style="fill:none;stroke-width:1.2;stroke-linecap:butt;stroke-linejoin:miter;stroke:rgb(0%,0%,0%);stroke-opacity:1;stroke-miterlimit:10;" d="M 249.765625 173.808594 L 264.75 166.410156 "/>
<path style="fill:none;stroke-width:1.2;stroke-linecap:butt;stroke-linejoin:miter;stroke:rgb(0%,0%,0%);stroke-opacity:1;stroke-miterlimit:10;" d="M 249.765625 173.808594 L 258.6875 187.9375 "/>
<path style="fill:none;stroke-width:1.2;stroke-linecap:butt;stroke-linejoin:miter;stroke:rgb(100%,0%,0%);stroke-opacity:1;stroke-miterlimit:10;" d="M 236.644531 184.15625 L 229.695312 179.519531 "/>
<path style="fill:none;stroke-width:1.2;stroke-linecap:butt;stroke-linejoin:miter;stroke:rgb(0%,0%,0%);stroke-opacity:1;stroke-miterlimit:10;" d="M 229.695312 179.519531 L 222.746094 174.878906 "/>
<path style=" stroke:none;fill-rule:nonzero;fill:rgb(100%,100%,100%);fill-opacity:1;" d="M 232.644531 178.65625 L 240.644531 178.65625 L 240.644531 189.65625 L 232.644531 189.65625 Z M 232.644531 178.65625 "/>
<g style="fill:rgb(100%,0%,0%);fill-opacity:1;">
  <use xlink:href="#glyph0-4" x="232.644531" y="187.319336"/>
</g>
<path style="fill:none;stroke-width:1.2;stroke-linecap:butt;stroke-linejoin:miter;stroke:rgb(0%,0%,0%);stroke-opacity:1;stroke-miterlimit:10;" d="M 196.222656 119.4375 L 185.871094 106.316406 "/>
<path style="fill:none;stroke-width:1.2;stroke-linecap:butt;stroke-linejoin:miter;stroke:rgb(0%,0%,0%);stroke-opacity:1;stroke-miterlimit:10;" d="M 185.871094 106.316406 L 169.332031 108.722656 "/>
<path style="fill:none;stroke-width:1.2;stroke-linecap:butt;stroke-linejoin:miter;stroke:rgb(0%,0%,0%);stroke-opacity:1;stroke-miterlimit:10;" d="M 184.785156 110.449219 L 171.554688 112.371094 "/>
</g>
</svg>

<svg xmlns="http://www.w3.org/2000/svg" xmlns:xlink="http://www.w3.org/1999/xlink" width="300pt" height="300pt" viewBox="0 0 300 300"><defs><symbol overflow="visible"><path d="M.453 1.594v-7.938h4.5v7.938zm.5-.5h3.5v-6.938h-3.5zm0 0"/></symbol><symbol overflow="visible" id="a"><path d="M.89-6.563h3.766v.75h-2.89v1.938h2.61v.734h-2.61V0H.89zm0 0"/></symbol><symbol overflow="visible" id="b"><path d="M.89-6.563H2.08l2.906 5.485v-5.484h.86V0H4.656L1.75-5.484V0H.89zm0 0"/></symbol><symbol overflow="visible" id="c"><path d="M.89-6.563h.876v2.688H5v-2.688h.89V0H5v-3.125H1.766V0H.89zm0 0"/></symbol><symbol overflow="visible" id="d"><path d="M3.547-5.953c-.65 0-1.164.242-1.547.72-.375.48-.563 1.13-.563 1.952 0 .835.188 1.49.563 1.967.383.48.898.72 1.547.72.644 0 1.156-.24 1.53-.72.376-.476.564-1.132.564-1.968 0-.822-.187-1.474-.562-1.954-.375-.477-.887-.72-1.53-.72zm0-.734c.914 0 1.648.312 2.203.937.55.617.828 1.438.828 2.47 0 1.042-.277 1.87-.828 2.483-.555.617-1.29.922-2.203.922-.93 0-1.668-.305-2.22-.922C.774-1.41.5-2.237.5-3.28c0-1.033.273-1.853.828-2.47.55-.625 1.29-.938 2.22-.938zm0 0"/></symbol></defs><g><path fill="#fff" d="M0 0h300v300H0z"/><path d="M74.402 193.684l-1.816-8.157" stroke-width="1.2" stroke="#3cc" stroke-miterlimit="10" fill="none"/><path d="M72.586 185.527l-1.816-8.156" stroke-width="1.2" stroke="#000" stroke-miterlimit="10" fill="none"/><path d="M71.402 188.184h6v11h-6zm0 0" fill="#fff"/><use xlink:href="#a" x="71.402" y="196.847" fill="#3cc"/><path d="M70.77 177.37l-15.942-5.007M70.355 173.12l-12.753-4.007M83.078 166.07l-12.308 11.3M54.828 172.363L51.19 156.05M51.19 156.05l-7.967-2.503" stroke-width="1.2" stroke="#000" stroke-miterlimit="10" fill="none"/><path d="M43.223 153.547l-7.973-2.504" stroke-width="1.2" stroke="#3cc" stroke-miterlimit="10" fill="none"/><path d="M51.19 156.05l12.314-11.3M55.082 157.816l9.848-9.04" stroke-width="1.2" stroke="#000" stroke-miterlimit="10" fill="none"/><path d="M29.25 145.543h6v11h-6zm0 0" fill="#fff"/><use xlink:href="#a" x="29.25" y="154.206" fill="#3cc"/><path d="M63.504 144.75l15.94 5.008M79.445 149.758l3.633 16.312M75.97 152.246l2.91 13.047M83.078 166.07l7.973 2.504" stroke-width="1.2" stroke="#000" stroke-miterlimit="10" fill="none"/><path d="M91.05 168.574l7.973 2.504M99.023 171.078l6.153-5.652" stroke-width="1.2" stroke="#00f" stroke-miterlimit="10" fill="none"/><path d="M105.176 165.426l6.156-5.653" stroke-width="1.2" stroke="#000" stroke-miterlimit="10" fill="none"/><path d="M92.023 165.578h14v11h-14zm0 0" fill="#fff"/><g fill="#00f"><use xlink:href="#b" x="92.023" y="174.241"/><use xlink:href="#c" x="99.001" y="174.241"/></g><path d="M111.332 159.773l15.94 5.012M114.105 156.523l12.754 4.008M107.7 143.465l3.632 16.308M127.273 164.785l12.31-11.305M139.582 153.48l-3.633-16.312M143.06 150.996l-2.908-13.05M154.602 160.81l-15.02-7.33M135.95 137.168l-15.942-5.008M135.95 137.168l10.488-13.008M120.008 132.16l-12.31 11.305M121.434 136.188l-9.848 9.042M148.21 123.316l-3.585-7.546" stroke-width="1.2" stroke="#000" stroke-miterlimit="10" fill="none"/><path d="M144.625 115.77l-3.586-7.547" stroke-width="1.2" stroke="#f00" stroke-miterlimit="10" fill="none"/><path d="M144.66 125.004l-3.586-7.547" stroke-width="1.2" stroke="#000" stroke-miterlimit="10" fill="none"/><path d="M141.074 117.457l-3.586-7.547" stroke-width="1.2" stroke="#f00" stroke-miterlimit="10" fill="none"/><path d="M146.438 124.16l16.71.086" stroke-width="1.2" stroke="#000" stroke-miterlimit="10" fill="none"/><path d="M131.266 103.566h8v11h-8zm0 0" fill="#fff"/><use xlink:href="#d" x="131.266" y="112.229" fill="#f00"/><path d="M163.148 124.246l10.352 13.117M167.27 123.12l8.28 10.497M169.332 108.723l-6.184 15.523M173.5 137.363l-3.805 16.274M173.5 137.363l16.535-2.402M169.695 153.637l-15.093 7.172M190.035 134.96l5.176 6.56" stroke-width="1.2" stroke="#000" stroke-miterlimit="10" fill="none"/><path d="M195.21 141.52l5.177 6.558" stroke-width="1.2" stroke="#f00" stroke-miterlimit="10" fill="none"/><path d="M190.035 134.96l6.188-15.523M187.004 131.953l4.945-12.422" stroke-width="1.2" stroke="#000" stroke-miterlimit="10" fill="none"/><path d="M200.387 148.078l8.27-1.203" stroke-width="1.2" stroke="#f00" stroke-miterlimit="10" fill="none"/><path d="M208.656 146.875l8.27-1.2" stroke-width="1.2" stroke="#000" stroke-miterlimit="10" fill="none"/><path d="M196.387 142.578h8v11h-8zm0 0" fill="#fff"/><use xlink:href="#d" x="196.387" y="151.241" fill="#f00"/><path d="M227.277 158.793m-1.422-2.64l-.816.644m-.606-3.29l-1.637 1.294m.22-3.933l-2.458 1.938m1.034-4.582l-3.274 2.586m1.852-5.228l-4.094 3.23m3.164-4.964l-4.633 3.652" stroke="#000" stroke-miterlimit="10" fill="none"/><path d="M227.277 158.793l8.348-.332" stroke-width="1.2" stroke="#000" stroke-miterlimit="10" fill="none"/><path d="M235.625 158.46l8.348-.33" stroke-width="1.2" stroke="#f00" stroke-miterlimit="10" fill="none"/><path d="M222.746 174.88l4.53-16.087" stroke-width="1.2" stroke="#000" stroke-miterlimit="10" fill="none"/><path d="M243.973 158.13l2.898 7.84" stroke-width="1.2" stroke="#f00" stroke-miterlimit="10" fill="none"/><path d="M246.87 165.97l2.896 7.84" stroke-width="1.2" stroke="#000" stroke-miterlimit="10" fill="none"/><path d="M239.973 152.63h8v11h-8zm0 0" fill="#fff"/><use xlink:href="#d" x="239.973" y="161.292" fill="#f00"/><path d="M249.766 173.81l-6.56 5.17" stroke-width="1.2" stroke="#000" stroke-miterlimit="10" fill="none"/><path d="M243.207 178.98l-6.562 5.176" stroke-width="1.2" stroke="#f00" stroke-miterlimit="10" fill="none"/><path d="M249.766 173.81l14.984-7.4M249.766 173.81l8.922 14.127" stroke-width="1.2" stroke="#000" stroke-miterlimit="10" fill="none"/><path d="M236.645 184.156l-6.95-4.636" stroke-width="1.2" stroke="#f00" stroke-miterlimit="10" fill="none"/><path d="M229.695 179.52l-6.95-4.64" stroke-width="1.2" stroke="#000" stroke-miterlimit="10" fill="none"/><path d="M232.645 178.656h8v11h-8zm0 0" fill="#fff"/><use xlink:href="#d" x="232.645" y="187.319" fill="#f00"/><path d="M196.223 119.438l-10.352-13.122M185.87 106.316l-16.538 2.407M184.785 110.45l-13.23 1.92" stroke-width="1.2" stroke="#000" stroke-miterlimit="10" fill="none"/></g></svg>
